X:175
T:Polonäs i Am efter Johan Eric Blomgren
R:Slängpolska
B:http://www.smus.se/earkiv/fmk/browselarge.php?lang=sw&katalogid=Ma+13a&bildnr=00053
S:efter Johan Eric Blomgren
Z:Nils L
M:3/4
L:1/16
K:Am
E2e2 cAB^G A4 | A2AB cAB^G A4 | A2AB c2cd e2a2 | agfe gfe^d e4 ::
c2cd e2ef g2ge | d2dc BcdB c2C2 | cBcd edef g2ge | d2dc BcdB c2C2 |
A^GAB cBcd e2c2 | cBA^G A4 A,4 :|

